;Formide (c)  
;FLAVOR: GCODE_FLAVOR_REPRAP  
G21
G28
G1 Z5 F5000
G90
G92 E0
M82
G92 E0

M104 S220
M190 S75
M109 S220
M106 S89
;Volume:0, LAYER:0  
G0 F3600 X85.140 Y103.886 Z0.200
;TYPE:BRIM  
G1 F1500 X85.242 Y103.807 E0.00194
G1 X85.346 Y103.727 E0.00392
G1 X85.549 Y103.602 E0.00750
G1 X85.563 Y103.594 E0.00775
G1 X85.639 Y103.534 E0.00920
G1 X85.830 Y103.450 E0.01234
G1 X85.872 Y103.425 E0.01308
G1 X86.132 Y103.324 E0.01728
G1 X86.205 Y103.298 E0.01844
G1 X86.467 Y103.217 E0.02257
G1 X87.037 Y103.123 E0.03126
G1 X110.573 Y101.679 E0.38611
G1 X111.157 Y101.653 E0.39491
G1 X111.551 Y101.649 E0.40084
G1 X111.736 Y101.652 E0.40362
G1 X111.792 Y101.651 E0.40446
G1 X112.389 Y101.671 E0.41345
G1 X113.038 Y101.715 E0.42324
G1 X113.666 Y101.784 E0.43275
G1 X114.292 Y101.873 E0.44226
G1 X114.915 Y101.991 E0.45180
G1 X115.526 Y102.130 E0.46123
G1 X116.137 Y102.289 E0.47073
G1 X116.722 Y102.471 E0.47995
G1 X117.280 Y102.664 E0.48884
G1 X117.830 Y102.874 E0.49770
G1 X118.369 Y103.104 E0.50652
G1 X118.892 Y103.348 E0.51520
G1 X119.400 Y103.608 E0.52379
G1 X119.899 Y103.882 E0.53236
G1 X120.385 Y104.175 E0.54090
G1 X120.852 Y104.478 E0.54927
G1 X121.311 Y104.795 E0.55767
G1 X121.789 Y105.152 E0.56665
G1 X122.269 Y105.540 E0.57593
G1 X122.715 Y105.925 E0.58480
G1 X123.127 Y106.307 E0.59326
G1 X123.589 Y106.768 E0.60308
G1 X123.975 Y107.184 E0.61162
G1 X124.014 Y107.230 E0.61252
G1 X124.353 Y107.621 E0.62031
G1 X124.553 Y107.862 E0.62502
G1 X124.929 Y108.347 E0.63426
G1 X125.294 Y108.852 E0.64364
G1 X125.639 Y109.372 E0.65303
G1 X125.953 Y109.888 E0.66212
G1 X125.984 Y109.942 E0.66305
G1 X126.039 Y110.031 E0.66463
G1 X126.230 Y110.437 E0.67138
G1 X126.288 Y110.621 E0.67428
G1 X126.369 Y110.914 E0.67886
G1 X126.413 Y111.270 E0.68426
G1 X126.423 Y111.458 E0.68709
G1 X126.422 Y111.491 E0.68759
G1 X126.426 Y111.603 E0.68927
G1 X126.372 Y112.060 E0.69620
G1 X126.278 Y112.436 E0.70203
G1 X126.053 Y112.951 E0.71049
G1 X125.719 Y113.498 E0.72013
G1 X125.546 Y113.774 E0.72503
G1 X125.543 Y113.779 E0.72512
G1 X125.531 Y113.796 E0.72543
G1 X125.524 Y113.808 E0.72564
G1 X125.520 Y113.813 E0.72574
G1 X125.389 Y114.008 E0.72928
G1 X125.072 Y114.463 E0.73762
G1 X124.955 Y114.618 E0.74054
G1 X124.908 Y114.684 E0.74176
G1 X124.551 Y115.142 E0.75050
G1 X124.192 Y115.571 E0.75892
G1 X123.818 Y115.988 E0.76735
G1 X123.432 Y116.392 E0.77576
G1 X123.009 Y116.803 E0.78463
G1 X122.585 Y117.191 E0.79328
G1 X122.097 Y117.604 E0.80290
G1 X121.642 Y117.957 E0.81157
G1 X121.453 Y118.102 E0.81515
G1 X121.029 Y118.402 E0.82297
G1 X120.995 Y118.428 E0.82361
G1 X120.515 Y118.743 E0.83225
G1 X120.033 Y119.039 E0.84076
G1 X119.539 Y119.318 E0.84930
G1 X119.043 Y119.577 E0.85772
G1 X118.900 Y119.648 E0.86012
G1 X118.406 Y119.879 E0.86833
G1 X117.925 Y120.090 E0.87623
G1 X117.401 Y120.295 E0.88470
G1 X116.864 Y120.485 E0.89327
G1 X116.324 Y120.652 E0.90178
G1 X115.779 Y120.807 E0.91031
G1 X115.225 Y120.939 E0.91888
G1 X114.654 Y121.062 E0.92767
G1 X114.029 Y121.166 E0.93720
G1 X113.473 Y121.241 E0.94564
G1 X112.902 Y121.295 E0.95428
G1 X112.366 Y121.334 E0.96236
G1 X111.805 Y121.349 E0.97081
G1 X111.764 Y121.348 E0.97142
G1 X111.640 Y121.351 E0.97329
G1 X111.580 Y121.350 E0.97419
G1 X111.467 Y121.351 E0.97589
G1 X111.286 Y121.347 E0.97862
G1 X111.243 Y121.348 E0.97927
G1 X110.664 Y121.324 E0.98799
G1 X110.139 Y121.296 E0.99590
G1 X100.399 Y120.694 E1.14275
G1 X99.279 Y120.629 E1.15963
G1 X87.068 Y119.878 E1.34374
G1 X86.644 Y119.824 E1.35017
G1 X86.195 Y119.699 E1.35718
G1 X85.974 Y119.614 E1.36075
G1 X85.745 Y119.511 E1.36452
G1 X85.541 Y119.396 E1.36805
G1 X85.321 Y119.253 E1.37200
G1 X84.981 Y118.979 E1.37857
G1 X84.780 Y118.768 E1.38295
G1 X84.653 Y118.612 E1.38598
G1 X84.503 Y118.418 E1.38967
G1 X84.380 Y118.215 E1.39324
G1 X84.256 Y117.990 E1.39711
G1 X84.068 Y117.534 E1.40453
G1 X83.934 Y116.916 E1.41405
G1 X83.901 Y116.563 E1.41938
G1 X83.903 Y116.507 E1.42023
G1 X83.900 Y116.397 E1.42188
G1 X83.901 Y116.165 E1.42537
G1 X83.901 Y114.326 E1.45305
G1 X83.900 Y114.131 E1.45598
G1 X83.902 Y114.104 E1.45639
G1 X83.901 Y114.049 E1.45722
G1 X83.902 Y113.990 E1.45810
G1 X83.901 Y113.953 E1.45866
G1 X83.902 Y113.911 E1.45929
G1 X83.901 Y113.881 E1.45975
G1 X83.902 Y113.816 E1.46072
G1 X83.900 Y111.541 E1.49496
G1 X83.897 Y111.492 E1.49570
G1 X83.902 Y111.432 E1.49660
G1 X83.900 Y109.736 E1.52213
G1 X83.902 Y109.705 E1.52259
G1 X83.902 Y109.684 E1.52291
G1 X83.901 Y109.665 E1.52320
G1 X83.894 Y109.608 E1.52406
G1 X83.902 Y109.483 E1.52594
G1 X83.900 Y106.485 E1.57106
G1 X83.998 Y105.716 E1.58273
G1 X84.166 Y105.208 E1.59078
G1 X84.354 Y104.826 E1.59718
G1 X84.501 Y104.585 E1.60143
G1 X84.642 Y104.401 E1.60492
G1 X84.787 Y104.221 E1.60840
G1 X84.964 Y104.043 E1.61218
G1 X85.140 Y103.886 E1.61573
G0 F3600 X85.446 Y104.256
G1 F1500 X85.536 Y104.187 E1.61743
G1 X85.620 Y104.122 E1.61903
G1 X85.793 Y104.015 E1.62209
G1 X85.832 Y103.993 E1.62277
G1 X85.888 Y103.949 E1.62384
G1 X86.051 Y103.877 E1.62652
G1 X86.083 Y103.858 E1.62708
G1 X86.300 Y103.774 E1.63058
G1 X86.358 Y103.753 E1.63151
G1 X86.577 Y103.685 E1.63496
G1 X87.091 Y103.601 E1.64280
G1 X110.598 Y102.158 E1.99721
G1 X111.170 Y102.133 E2.00582
G1 X111.550 Y102.129 E2.01154
G1 X111.736 Y102.132 E2.01434
G1 X111.789 Y102.131 E2.01514
G1 X112.365 Y102.150 E2.02381
G1 X112.995 Y102.193 E2.03331
G1 X113.606 Y102.260 E2.04256
G1 X114.213 Y102.347 E2.05179
G1 X114.817 Y102.461 E2.06104
G1 X115.412 Y102.596 E2.07022
G1 X116.005 Y102.751 E2.07945
G1 X116.572 Y102.927 E2.08838
G1 X117.116 Y103.115 E2.09704
G1 X117.650 Y103.319 E2.10564
G1 X118.173 Y103.542 E2.11420
G1 X118.681 Y103.779 E2.12264
G1 X119.175 Y104.032 E2.13099
G1 X119.659 Y104.298 E2.13930
G1 X120.130 Y104.582 E2.14758
G1 X120.585 Y104.877 E2.15574
G1 X121.031 Y105.185 E2.16389
G1 X121.494 Y105.531 E2.17259
G1 X121.961 Y105.908 E2.18162
G1 X122.395 Y106.283 E2.19025
G1 X122.794 Y106.653 E2.19844
G1 X123.243 Y107.101 E2.20799
G1 X123.616 Y107.503 E2.21624
G1 X123.651 Y107.544 E2.21705
G1 X123.987 Y107.932 E2.22477
G1 X124.179 Y108.163 E2.22929
G1 X124.545 Y108.635 E2.23828
G1 X124.899 Y109.125 E2.24738
G1 X125.234 Y109.630 E2.25650
G1 X125.540 Y110.132 E2.26535
G1 X125.576 Y110.195 E2.26644
G1 X125.617 Y110.261 E2.26761
G1 X125.782 Y110.612 E2.27344
G1 X125.828 Y110.757 E2.27573
G1 X125.897 Y111.008 E2.27965
G1 X125.935 Y111.313 E2.28428
G1 X125.943 Y111.463 E2.28654
G1 X125.942 Y111.495 E2.28702
G1 X125.945 Y111.583 E2.28834
G1 X125.899 Y111.973 E2.29425
G1 X125.822 Y112.281 E2.29903
G1 X125.626 Y112.729 E2.30639
G1 X125.311 Y113.245 E2.31549
G1 X125.132 Y113.530 E2.32055
G1 X125.128 Y113.535 E2.32065
G1 X125.127 Y113.537 E2.32068
G1 X124.993 Y113.737 E2.32430
G1 X124.683 Y114.181 E2.33245
G1 X124.571 Y114.330 E2.33526
G1 X124.523 Y114.398 E2.33651
G1 X124.178 Y114.840 E2.34495
G1 X123.829 Y115.257 E2.35313
G1 X123.466 Y115.662 E2.36131
G1 X123.091 Y116.054 E2.36948
G1 X122.680 Y116.454 E2.37811
G1 X122.268 Y116.831 E2.38651
G1 X121.795 Y117.231 E2.39583
G1 X121.349 Y117.577 E2.40433
G1 X121.168 Y117.716 E2.40776
G1 X120.738 Y118.020 E2.41569
G1 X120.717 Y118.036 E2.41609
G1 X120.258 Y118.338 E2.42435
G1 X119.789 Y118.625 E2.43263
G1 X119.310 Y118.896 E2.44091
G1 X118.826 Y119.149 E2.44913
G1 X118.692 Y119.215 E2.45138
G1 X118.208 Y119.442 E2.45942
G1 X117.741 Y119.646 E2.46709
G1 X117.233 Y119.845 E2.47530
G1 X116.713 Y120.029 E2.48360
G1 X116.187 Y120.192 E2.49189
G1 X115.658 Y120.342 E2.50016
G1 X115.119 Y120.471 E2.50850
G1 X114.564 Y120.590 E2.51704
G1 X113.957 Y120.691 E2.52630
G1 X113.418 Y120.764 E2.53449
G1 X112.862 Y120.817 E2.54289
G1 X112.342 Y120.854 E2.55074
G1 X111.804 Y120.869 E2.55884
G1 X111.763 Y120.868 E2.55946
G1 X111.639 Y120.871 E2.56132
G1 X111.584 Y120.870 E2.56215
G1 X111.470 Y120.871 E2.56387
G1 X111.285 Y120.867 E2.56665
G1 X111.247 Y120.868 E2.56722
G1 X110.687 Y120.845 E2.57566
G1 X110.167 Y120.817 E2.58349
G1 X100.429 Y120.215 E2.73031
G1 X99.308 Y120.150 E2.74721
G1 X87.113 Y119.400 E2.93107
G1 X86.739 Y119.352 E2.93675
G1 X86.346 Y119.243 E2.94289
G1 X86.159 Y119.171 E2.94590
G1 X85.962 Y119.082 E2.94915
G1 X85.790 Y118.985 E2.95213
G1 X85.603 Y118.864 E2.95548
G1 X85.307 Y118.625 E2.96120
G1 X85.141 Y118.451 E2.96482
G1 X85.029 Y118.313 E2.96750
G1 X84.899 Y118.146 E2.97068
G1 X84.796 Y117.975 E2.97368
G1 X84.689 Y117.782 E2.97701
G1 X84.528 Y117.391 E2.98337
G1 X84.409 Y116.843 E2.99181
G1 X84.382 Y116.547 E2.99628
G1 X84.383 Y116.508 E2.99687
G1 X84.380 Y116.392 E2.99861
G1 X84.381 Y116.167 E3.00200
G1 X84.381 Y114.326 E3.02970
G1 X84.380 Y114.146 E3.03241
G1 X84.382 Y114.116 E3.03287
G1 X84.381 Y114.050 E3.03386
G1 X84.382 Y113.999 E3.03463
G1 X84.381 Y113.956 E3.03527
G1 X84.382 Y113.928 E3.03569
G1 X84.381 Y113.880 E3.03642
G1 X84.382 Y113.825 E3.03725
G1 X84.380 Y111.524 E3.07187
G1 X84.378 Y111.495 E3.07231
G1 X84.382 Y111.446 E3.07305
G1 X84.380 Y109.753 E3.09853
G1 X84.381 Y109.739 E3.09874
G1 X84.382 Y109.695 E3.09940
G1 X84.381 Y109.630 E3.10038
G1 X84.376 Y109.592 E3.10095
G1 X84.382 Y109.498 E3.10237
G1 X84.380 Y106.515 E3.14726
G1 X84.468 Y105.823 E3.15776
G1 X84.611 Y105.390 E3.16462
G1 X84.775 Y105.058 E3.17019
G1 X84.898 Y104.857 E3.17374
G1 X85.020 Y104.697 E3.17677
G1 X85.145 Y104.542 E3.17976
G1 X85.295 Y104.391 E3.18297
G1 X85.446 Y104.256 E3.18601
G0 F3600 X85.752 Y104.626
G1 F1500 X85.831 Y104.566 E3.18751
G1 X85.894 Y104.517 E3.18871
G1 X86.038 Y104.428 E3.19126
G1 X86.103 Y104.391 E3.19238
G1 X86.138 Y104.363 E3.19306
G1 X86.273 Y104.304 E3.19527
G1 X86.296 Y104.290 E3.19568
G1 X86.466 Y104.224 E3.19842
G1 X86.509 Y104.209 E3.19911
G1 X86.688 Y104.153 E3.20193
G1 X87.144 Y104.079 E3.20888
G1 X110.623 Y102.637 E3.56287
G1 X111.183 Y102.613 E3.57131
G1 X111.549 Y102.609 E3.57681
G1 X111.737 Y102.612 E3.57964
G1 X111.786 Y102.611 E3.58038
G1 X112.341 Y102.629 E3.58874
G1 X112.952 Y102.671 E3.59795
G1 X113.546 Y102.736 E3.60695
G1 X114.134 Y102.821 E3.61589
G1 X114.720 Y102.931 E3.62486
G1 X115.298 Y103.062 E3.63378
G1 X115.873 Y103.213 E3.64272
G1 X116.423 Y103.383 E3.65139
G1 X116.952 Y103.566 E3.65981
G1 X117.470 Y103.764 E3.66815
G1 X117.977 Y103.980 E3.67645
G1 X118.470 Y104.210 E3.68463
G1 X118.950 Y104.456 E3.69275
G1 X119.419 Y104.714 E3.70081
G1 X119.875 Y104.989 E3.70882
G1 X120.318 Y105.276 E3.71676
G1 X120.751 Y105.575 E3.72468
G1 X121.200 Y105.910 E3.73311
G1 X121.653 Y106.276 E3.74188
G1 X122.075 Y106.641 E3.75027
G1 X122.461 Y106.999 E3.75819
G1 X122.897 Y107.434 E3.76746
G1 X123.257 Y107.822 E3.77543
G1 X123.285 Y107.855 E3.77608
G1 X123.621 Y108.242 E3.78379
G1 X123.804 Y108.463 E3.78811
G1 X124.161 Y108.923 E3.79687
G1 X124.504 Y109.398 E3.80569
G1 X124.829 Y109.888 E3.81454
G1 X125.127 Y110.377 E3.82315
G1 X125.168 Y110.448 E3.82439
G1 X125.194 Y110.490 E3.82513
G1 X125.334 Y110.788 E3.83009
G1 X125.368 Y110.894 E3.83176
G1 X125.425 Y111.102 E3.83501
G1 X125.457 Y111.356 E3.83886
G1 X125.463 Y111.468 E3.84055
G1 X125.462 Y111.497 E3.84098
G1 X125.464 Y111.562 E3.84196
G1 X125.426 Y111.886 E3.84687
G1 X125.366 Y112.125 E3.85058
G1 X125.199 Y112.507 E3.85685
G1 X124.903 Y112.992 E3.86540
G1 X124.736 Y113.258 E3.87013
G1 X124.727 Y113.270 E3.87036
G1 X124.719 Y113.284 E3.87060
G1 X124.597 Y113.466 E3.87390
G1 X124.294 Y113.900 E3.88186
G1 X124.201 Y114.024 E3.88419
G1 X124.191 Y114.035 E3.88442
G1 X124.137 Y114.112 E3.88583
G1 X123.805 Y114.538 E3.89396
G1 X123.466 Y114.943 E3.90191
G1 X123.114 Y115.336 E3.90985
G1 X122.750 Y115.716 E3.91777
G1 X122.351 Y116.105 E3.92615
G1 X121.951 Y116.470 E3.93430
G1 X121.493 Y116.858 E3.94333
G1 X121.056 Y117.197 E3.95166
G1 X120.883 Y117.330 E3.95494
G1 X120.461 Y117.628 E3.96271
G1 X120.442 Y117.642 E3.96307
G1 X120.001 Y117.933 E3.97102
G1 X119.546 Y118.211 E3.97904
G1 X119.081 Y118.474 E3.98708
G1 X118.608 Y118.721 E3.99511
G1 X118.483 Y118.783 E3.99721
G1 X118.010 Y119.005 E4.00508
G1 X117.558 Y119.202 E4.01250
G1 X117.065 Y119.395 E4.02046
G1 X116.562 Y119.573 E4.02849
G1 X116.051 Y119.732 E4.03655
G1 X115.537 Y119.877 E4.04458
G1 X115.013 Y120.003 E4.05269
G1 X114.474 Y120.118 E4.06099
G1 X113.885 Y120.216 E4.06997
G1 X113.363 Y120.287 E4.07790
G1 X112.822 Y120.339 E4.08608
G1 X112.318 Y120.374 E4.09368
G1 X111.803 Y120.389 E4.10143
G1 X111.762 Y120.388 E4.10205
G1 X111.638 Y120.391 E4.10392
G1 X111.589 Y120.390 E4.10465
G1 X111.473 Y120.391 E4.10640
G1 X111.283 Y120.387 E4.10926
G1 X111.250 Y120.388 E4.10976
G1 X110.710 Y120.366 E4.11789
G1 X110.195 Y120.338 E4.12565
G1 X100.459 Y119.736 E4.27244
G1 X99.337 Y119.671 E4.28936
G1 X87.159 Y118.922 E4.47296
G1 X86.834 Y118.880 E4.47789
G1 X86.497 Y118.787 E4.48315
G1 X86.345 Y118.728 E4.48561
G1 X86.179 Y118.653 E4.48835
G1 X86.038 Y118.574 E4.49078
G1 X85.885 Y118.475 E4.49352
G1 X85.633 Y118.271 E4.49840
G1 X85.501 Y118.133 E4.50128
G1 X85.404 Y118.014 E4.50359
G1 X85.295 Y117.874 E4.50626
G1 X85.212 Y117.736 E4.50868
G1 X85.123 Y117.574 E4.51146
G1 X84.988 Y117.247 E4.51679
G1 X84.884 Y116.770 E4.52413
G1 X84.863 Y116.536 E4.52767
G1 X84.864 Y116.513 E4.52801
G1 X84.860 Y116.386 E4.52993
G1 X84.861 Y116.169 E4.53319
G1 X84.861 Y114.326 E4.56093
G1 X84.860 Y114.158 E4.56345
G1 X84.862 Y114.123 E4.56398
G1 X84.861 Y114.052 E4.56505
G1 X84.862 Y114.011 E4.56567
G1 X84.861 Y113.957 E4.56648
G1 X84.862 Y113.914 E4.56713
G1 X84.861 Y113.879 E4.56765
G1 X84.862 Y113.836 E4.56830
G1 X84.860 Y111.528 E4.60303
G1 X84.861 Y111.524 E4.60310
G1 X84.859 Y111.497 E4.60350
G1 X84.862 Y111.461 E4.60405
G1 X84.860 Y109.774 E4.62943
G1 X84.861 Y109.763 E4.62960
G1 X84.862 Y109.703 E4.63050
G1 X84.861 Y109.599 E4.63207
G1 X84.858 Y109.576 E4.63242
G1 X84.862 Y109.511 E4.63340
G1 X84.860 Y106.545 E4.67803
G1 X84.938 Y105.930 E4.68736
G1 X85.056 Y105.573 E4.69302
G1 X85.196 Y105.290 E4.69777
G1 X85.295 Y105.128 E4.70063
G1 X85.398 Y104.993 E4.70318
G1 X85.503 Y104.863 E4.70570
G1 X85.626 Y104.739 E4.70832
G1 X85.752 Y104.626 E4.71087
G0 F3600 X86.059 Y104.996
G1 F1500 X86.124 Y104.946 E4.71210
G1 X86.168 Y104.912 E4.71294
G1 X86.282 Y104.841 E4.71496
G1 X86.373 Y104.790 E4.71653
G1 X86.388 Y104.778 E4.71682
G1 X86.496 Y104.731 E4.71859
G1 X86.512 Y104.721 E4.71888
G1 X86.631 Y104.675 E4.72080
G1 X86.660 Y104.665 E4.72126
G1 X86.799 Y104.621 E4.72345
G1 X87.197 Y104.557 E4.72952
G1 X110.648 Y103.116 E5.08309
G1 X111.196 Y103.093 E5.09134
G1 X111.548 Y103.089 E5.09664
G1 X111.740 Y103.092 E5.09953
G1 X111.784 Y103.091 E5.10019
G1 X112.317 Y103.108 E5.10821
G1 X112.909 Y103.149 E5.11714
G1 X113.485 Y103.212 E5.12586
G1 X114.055 Y103.295 E5.13453
G1 X114.623 Y103.401 E5.14323
G1 X115.184 Y103.528 E5.15188
G1 X115.741 Y103.675 E5.16055
G1 X116.274 Y103.839 E5.16894
G1 X116.788 Y104.017 E5.17713
G1 X117.290 Y104.209 E5.18522
G1 X117.781 Y104.418 E5.19325
G1 X118.259 Y104.641 E5.20119
G1 X118.725 Y104.880 E5.20907
G1 X119.179 Y105.130 E5.21687
G1 X119.621 Y105.396 E5.22463
G1 X120.051 Y105.675 E5.23234
G1 X120.471 Y105.965 E5.24002
G1 X120.906 Y106.289 E5.24819
G1 X121.345 Y106.644 E5.25668
G1 X121.755 Y106.998 E5.26483
G1 X122.128 Y107.345 E5.27250
G1 X122.551 Y107.767 E5.28149
G1 X122.899 Y108.142 E5.28919
G1 X122.923 Y108.170 E5.28974
G1 X123.255 Y108.552 E5.29736
G1 X123.429 Y108.763 E5.30148
G1 X123.777 Y109.211 E5.31001
G1 X124.109 Y109.671 E5.31855
G1 X124.424 Y110.146 E5.32713
G1 X124.714 Y110.622 E5.33551
G1 X124.752 Y110.688 E5.33666
G1 X124.772 Y110.720 E5.33723
G1 X124.886 Y110.963 E5.34127
G1 X124.907 Y111.030 E5.34232
G1 X124.953 Y111.197 E5.34493
G1 X124.979 Y111.400 E5.34801
G1 X124.983 Y111.474 E5.34913
G1 X124.982 Y111.511 E5.34968
G1 X124.983 Y111.542 E5.35015
G1 X124.953 Y111.799 E5.35404
G1 X124.910 Y111.969 E5.35668
G1 X124.772 Y112.285 E5.36187
G1 X124.495 Y112.740 E5.36989
G1 X124.343 Y112.982 E5.37419
G1 X124.325 Y113.005 E5.37463
G1 X124.309 Y113.034 E5.37513
G1 X124.201 Y113.195 E5.37804
G1 X123.904 Y113.619 E5.38583
G1 X123.827 Y113.723 E5.38778
G1 X123.806 Y113.747 E5.38826
G1 X123.750 Y113.828 E5.38974
G1 X123.432 Y114.236 E5.39753
G1 X123.103 Y114.629 E5.40524
G1 X122.762 Y115.010 E5.41293
G1 X122.409 Y115.378 E5.42061
G1 X122.022 Y115.756 E5.42875
